app/icons/svg/ic_dragndrop.svg

<svg xmlns="http://www.w3.org/2000/svg" viewBox="0 0 24 24"><g fill="none" fill-rule="evenodd"><path d="M0 0h24v24H0z"/><path fill="#454545" d="M11 18v3H8v-3h3zm5 0v3h-3v-3h3zm-5-5v3H8v-3h3zm5 0v3h-3v-3h3zm-5-5v3H8V8h3zm5 0v3h-3V8h3zm-5-5v3H8V3h3zm5 0v3h-3V3h3z"/></g></svg>

<?xml version="1.0" encoding="UTF-8"?>
<svg width="24px" height="24px" viewBox="0 0 24 24" version="1.1" xmlns="http://www.w3.org/2000/svg" xmlns:xlink="http://www.w3.org/1999/xlink">
    <title>Icons/IXT/24dp/ic_dragndrop</title>
    <g id="Icons/IXT/24dp/ic_dragndrop" stroke="none" stroke-width="1" fill="none" fill-rule="evenodd">
        <g id="Icon">
            <rect id="Container" x="0" y="0" width="24" height="24"></rect>
            <path d="M11,18 L11,21 L8,21 L8,18 L11,18 Z M16,18 L16,21 L13,21 L13,18 L16,18 Z M11,13 L11,16 L8,16 L8,13 L11,13 Z M16,13 L16,16 L13,16 L13,13 L16,13 Z M11,8 L11,11 L8,11 L8,8 L11,8 Z M16,8 L16,11 L13,11 L13,8 L16,8 Z M11,3 L11,6 L8,6 L8,3 L11,3 Z M16,3 L16,6 L13,6 L13,3 L16,3 Z" fill="#454545"></path>
        </g>
    </g>
</svg>
